client/public/assets/icons/utility/food_and_drink.svg

<?xml version="1.0" encoding="utf-8"?>
<svg version="1.1" id="Layer_1" xmlns="http://www.w3.org/2000/svg" xmlns:xlink="http://www.w3.org/1999/xlink" x="0px" y="0px"
   width="52px" height="52px" viewBox="0 0 52 52" enable-background="new 0 0 52 52" xml:space="preserve">
  <path fill="#FFFFFF" d="M40.8813782,24 C39.9367714,31.8648614 33.526454,37 28,37 L16.0015898,37 C10.0054932,37 3.00158983,31.010376 3.00158983,22 C3.00158983,17.3333333 3.00158983,12.6666667 3.00158983,8 L3.00158983,8 C3.00158983,6.8954305 3.89702033,6 5.00158983,6 L5.00158983,6 L39,6 L44,6 C47.3137085,6 50,8.6862915 50,12 L50,18 C50,21.3137085 47.3137085,24 44,24 L40.8813782,24 Z M39,6 L39,6 Z M40.5925926,40 C41.3333333,40 42,40.675 42,41.425 L42,41.5 C42,43.975 40,46 37.5555556,46 L6.44444444,46 C4,46 2,43.975 2,41.5 L2,41.425 C2,40.675 2.66666667,40 3.40740741,40 L40.5925926,40 Z M41,11 L41,19 L43,19 C44.1045695,19 45,18.1045695 45,17 L45,13 C45,11.8954305 44.1045695,11 43,11 L41,11 Z"/>
</svg>

<?xml version="1.0"?><svg xmlns="http://www.w3.org/2000/svg" width="52" height="52" viewBox="0 0 52 52"><path fill="#fff" d="m40.9 24c-1 7.9-7.4 13-12.9 13h-12c-6 0-13-6-13-15v-14c0-1.1 0.9-2 2-2h39c3.3 0 6 2.7 6 6v6c0 3.3-2.7 6-6 6h-3.1z m-1.9-18z m1.6 34c0.7 0 1.4 0.7 1.4 1.4v0.1c0 2.5-2 4.5-4.4 4.5h-31.2c-2.4 0-4.4-2-4.4-4.5v-0.1c0-0.7 0.7-1.4 1.4-1.4h37.2z m0.4-29v8h2c1.1 0 2-0.9 2-2v-4c0-1.1-0.9-2-2-2h-2z"></path></svg>
